X:1
T:Laddie, Lie Near Me
M:3/4
L:1/8
K:F
 A2 d2 ^c2| d3 e d-e/2-f/2| A2 d3/2- e/2 ^c2| d3 e- f2|d-cB-AG-F| F3G-A G-|\
 F2E-D E^C| D3- E D2| F3 G F2| G3- A G2| A2 d2 ^c2| d3 e d-e/2-f/2|\
d-cB-AG-F| F3 GA-G| G2E-DE-^C| D3- E D2|
